_PROJECT/BUILD/img/icons/ic-theatre.svg

<svg xmlns="http://www.w3.org/2000/svg" width="26" height="32"><path d="M13 0a13 13 0 0 1 10.08 21.2C20.7 24.13 13 32 13 32S5.24 24.1 2.86 21.14A13 13 0 0 1 13 0z" fill-rule="evenodd" fill="#0068b8"/><circle cx="13" cy="13" r="11" fill="#fff"/><g data-name="c13 monument"><path data-name="&lt;Group&gt;" d="M15.68 16.79v-6.43h-2.14v6.43zm3.22 0v-6.43h-2.15v6.43zm1.1-7.7L13 5 6 9.09s-.48.43 0 .73h14a.47.47 0 0 0 0-.73zm-7.5 7.69v-6.42h-2.18v6.43zm-3.21 0v-6.42H7.11v6.43zm10.24.76H6.71L5.5 19.12V20h15v-.88z" fill="#0068b8"/></g></svg>

<svg xmlns="http://www.w3.org/2000/svg" width="26" height="32" viewBox="0 0 26 32"><defs><style>.cls-1,.cls-3{fill:#0068b8;}.cls-1{fill-rule:evenodd;}.cls-2{fill:#fff;}</style></defs><title>ic-theatre</title><g id="bk"><path class="cls-1" d="M13,0a13,13,0,0,1,10.08,21.2C20.7,24.13,13,32,13,32S5.24,24.1,2.86,21.14A13,13,0,0,1,13,0Z" transform="translate(0 0)"/><circle class="cls-2" cx="13" cy="13" r="11"/></g><g id="theatre"><g id="c13_monument" data-name="c13 monument"><path id="_Group_" data-name="&lt;Group&gt;" class="cls-3" d="M15.68,16.79V10.36H13.54v6.43Zm3.22,0V10.36H16.75v6.43ZM20,9.09,13,5,6,9.09s-.48.43,0,.73H20A.47.47,0,0,0,20,9.09Zm-7.5,7.69V10.36H10.32v6.43Zm-3.21,0V10.36H7.11v6.43Zm10.24.76-12.82,0L5.5,19.12V20h15v-.88Z" transform="translate(0 0)"/></g></g></svg>
